gtk/icons/scalable/actions/edit-cut-symbolic.svg

<svg width='16' height='16'
     xmlns:gpa='https://www.gtk.org/grappa'
     gpa:version='1'
     gpa:keywords='edit clipboard cut scissors'
     gpa:state='0'>
  <path d='M 10 13 C 10 14.1045694, 9.10456944 15, 8 15 C 6.89543056 15, 6 14.1045694, 6 13 C 6 11.8954306, 6.89543056 11, 8 11 C 9.10456944 11, 10 11.8954306, 10 13 Z M 5 5 C 5 6.10456944, 4.10456944 7, 3 7 C 1.89543045 7, 1 6.10456944, 1 5 C 1 3.89543056, 1.89543045 3, 3 3 C 4.10456944 3, 5 3.89543056, 5 5 Z M 12 2 L 6.30200005 11.9440002 M 15 7 L 3 7'
        id='path0'
        stroke-width='2'
        stroke-linecap='round'
        stroke-linejoin='round'
        stroke='rgb(0,0,0)'
        fill='none'
        class='foreground-stroke transparent-fill'/>
</svg>

<svg xmlns="http://www.w3.org/2000/svg" width="16" height="16" viewBox="0 0 16 16"><path d="M10 13a2 2 0 0 1-2 2 2 2 0 0 1-2-2 2 2 0 0 1 2-2 2 2 0 0 1 2 2zM5 5a2 2 0 0 1-2 2 2 2 0 0 1-2-2 2 2 0 0 1 2-2 2 2 0 0 1 2 2Zm7-3-5.698 9.944M15 7H3" class="foreground-stroke transparent-fill" style="fill:none;stroke:#241f31;stroke-width:2;stroke-linecap:round;paint-order:stroke markers fill"/></svg>
